icons/chromium.svg

<?xml version="1.0" encoding="UTF-8" standalone="no"?>
<!-- Created with Inkscape (http://www.inkscape.org/) -->

<svg
   xmlns:dc="http://purl.org/dc/elements/1.1/"
   xmlns:cc="http://creativecommons.org/ns#"
   xmlns:rdf="http://www.w3.org/1999/02/22-rdf-syntax-ns#"
   xmlns:svg="http://www.w3.org/2000/svg"
   xmlns="http://www.w3.org/2000/svg"
   xmlns:sodipodi="http://sodipodi.sourceforge.net/DTD/sodipodi-0.dtd"
   xmlns:inkscape="http://www.inkscape.org/namespaces/inkscape"
   width="128"
   height="128"
   id="svg2"
   sodipodi:version="0.32"
   inkscape:version="0.47 r22583"
   version="1.0"
   sodipodi:docname="chromium.svg"
   inkscape:output_extension="org.inkscape.output.svg.inkscape">
  <defs
     id="defs4">
    <inkscape:perspective
       sodipodi:type="inkscape:persp3d"
       inkscape:vp_x="0 : 526.18109 : 1"
       inkscape:vp_y="0 : 1000 : 0"
       inkscape:vp_z="744.09448 : 526.18109 : 1"
       inkscape:persp3d-origin="372.04724 : 350.78739 : 1"
       id="perspective10" />
    <inkscape:perspective
       id="perspective2692"
       inkscape:persp3d-origin="372.04724 : 350.78739 : 1"
       inkscape:vp_z="744.09448 : 526.18109 : 1"
       inkscape:vp_y="0 : 1000 : 0"
       inkscape:vp_x="0 : 526.18109 : 1"
       sodipodi:type="inkscape:persp3d" />
  </defs>
  <sodipodi:namedview
     id="base"
     pagecolor="#ffffff"
     bordercolor="#666666"
     borderopacity="1.0"
     inkscape:pageopacity="0.0"
     inkscape:pageshadow="2"
     inkscape:zoom="2.8"
     inkscape:cx="29.784803"
     inkscape:cy="81.119077"
     inkscape:document-units="px"
     inkscape:current-layer="layer1"
     showgrid="false"
     inkscape:window-width="1440"
     inkscape:window-height="851"
     inkscape:window-x="0"
     inkscape:window-y="15"
     inkscape:window-maximized="0" />
  <metadata
     id="metadata7">
    <rdf:RDF>
      <cc:Work
         rdf:about="">
        <dc:format>image/svg+xml</dc:format>
        <dc:type
           rdf:resource="http://purl.org/dc/dcmitype/StillImage" />
      </cc:Work>
    </rdf:RDF>
  </metadata>
  <g
     inkscape:label="Capa 1"
     inkscape:groupmode="layer"
     id="layer1">
    <g
       id="g2970"
       transform="matrix(1.9329296,0,0,1.9329296,-63.381432,-58.308582)">
      <path
         id="path2938"
         d="m 44.75,37.875 c -7.346372,6.06359 -12.03125,15.237737 -12.03125,25.5 0,12.461733 6.900398,23.306598 17.09375,28.9375 3.442016,1.502112 7.422028,2.826253 12.03125,3.875 0.03089,0.0036 0.06284,-0.0036 0.09375,0 C 45.552927,87.184678 48.21875,83 48.21875,83 L 61.0625,70.6875 c -10e-7,-3e-6 -13.388392,-3.59375 -10.53125,-18.59375 C 45.960478,43.96793 45.336573,46.065602 44.75,37.875 z"
         style="opacity:1;fill:#000000;fill-opacity:1;stroke:none" />
      <path
         id="path2947"
         d="m 65.75,30.34375 c -6.710588,0 -12.941548,1.996756 -18.15625,5.4375 -0.982142,7.5 4.718749,13.656251 4.71875,13.65625 15.178571,-15.446429 26.968751,-0.09375 26.96875,-0.09375 -0.03642,0 10.17964,1.467697 17.875,3.71875 C 92.816204,39.871276 80.387879,30.343751 65.75,30.34375 z"
         style="opacity:1;fill:#000000;fill-opacity:1;stroke:none" />
      <path
         id="path2949"
         d="m 80.71875,53.263393 c 4.821429,16.785714 -16.254464,19.11607 -16.34375,18.9375 -0.08929,-0.178572 -12.593749,11.343747 -12.59375,11.34375 0,0 1.620533,5.254465 13.40625,10.34375 4.163032,0.933912 8.041999,0.74304 11.625,-0.25 0.102955,-0.03656 0.210017,-0.0562 0.3125,-0.09375 12.653256,-4.635863 21.687498,-16.809355 21.6875,-31.0625 0,-1.441246 -0.102046,-2.857262 -0.28125,-4.25 -7.251105,-4.322021 -17.812501,-4.968749 -17.8125,-4.96875 z"
         style="opacity:1;fill:#000000;fill-opacity:1;stroke:none" />
      <path
         transform="matrix(1.0534351,0,0,1.2,66.560796,-7.3857147)"
         d="m 10.892857,53.892857 a 11.696428,9.8214283 0 1 1 -23.392857,0 11.696428,9.8214283 0 1 1 23.392857,0 z"
         sodipodi:ry="9.8214283"
         sodipodi:rx="11.696428"
         sodipodi:cy="53.892857"
         sodipodi:cx="-0.8035714"
         id="path2966"
         style="opacity:1;fill:#000000;fill-opacity:1;stroke:none"
         sodipodi:type="arc" />
    </g>
  </g>
</svg>

<?xml version="1.0" encoding="UTF-8" standalone="no"?>
<!-- Created with Inkscape (http://www.inkscape.org/) -->
<svg
   xmlns:dc="http://purl.org/dc/elements/1.1/"
   xmlns:cc="http://creativecommons.org/ns#"
   xmlns:rdf="http://www.w3.org/1999/02/22-rdf-syntax-ns#"
   xmlns:svg="http://www.w3.org/2000/svg"
   xmlns="http://www.w3.org/2000/svg"
   xmlns:sodipodi="http://sodipodi.sourceforge.net/DTD/sodipodi-0.dtd"
   xmlns:inkscape="http://www.inkscape.org/namespaces/inkscape"
   width="128"
   height="128"
   id="svg2"
   sodipodi:version="0.32"
   inkscape:version="0.46"
   version="1.0"
   sodipodi:docname="chromium.svg"
   inkscape:output_extension="org.inkscape.output.svg.inkscape">
  <defs
     id="defs4">
    <inkscape:perspective
       sodipodi:type="inkscape:persp3d"
       inkscape:vp_x="0 : 526.18109 : 1"
       inkscape:vp_y="0 : 1000 : 0"
       inkscape:vp_z="744.09448 : 526.18109 : 1"
       inkscape:persp3d-origin="372.04724 : 350.78739 : 1"
       id="perspective10" />
    <inkscape:perspective
       id="perspective2692"
       inkscape:persp3d-origin="372.04724 : 350.78739 : 1"
       inkscape:vp_z="744.09448 : 526.18109 : 1"
       inkscape:vp_y="0 : 1000 : 0"
       inkscape:vp_x="0 : 526.18109 : 1"
       sodipodi:type="inkscape:persp3d" />
  </defs>
  <sodipodi:namedview
     id="base"
     pagecolor="#ffffff"
     bordercolor="#666666"
     borderopacity="1.0"
     inkscape:pageopacity="0.0"
     inkscape:pageshadow="2"
     inkscape:zoom="2.8"
     inkscape:cx="80.499089"
     inkscape:cy="80.940506"
     inkscape:document-units="px"
     inkscape:current-layer="layer1"
     showgrid="false"
     inkscape:window-width="1440"
     inkscape:window-height="851"
     inkscape:window-x="-4"
     inkscape:window-y="-1" />
  <metadata
     id="metadata7">
    <rdf:RDF>
      <cc:Work
         rdf:about="">
        <dc:format>image/svg+xml</dc:format>
        <dc:type
           rdf:resource="http://purl.org/dc/dcmitype/StillImage" />
      </cc:Work>
    </rdf:RDF>
  </metadata>
  <g
     inkscape:label="Capa 1"
     inkscape:groupmode="layer"
     id="layer1">
    <g
       id="g2970"
       transform="matrix(1.9329296,0,0,1.9329296,-63.381432,-58.308582)">
      <path
         id="path2938"
         d="M 44.75,37.875 C 37.403628,43.93859 32.71875,53.112737 32.71875,63.375 C 32.71875,75.836733 39.619148,86.681598 49.8125,92.3125 C 53.254516,93.814612 57.234528,95.138753 61.84375,96.1875 C 61.874638,96.191147 61.906586,96.183939 61.9375,96.1875 C 45.552927,87.184678 48.21875,83 48.21875,83 L 61.0625,70.6875 C 61.062499,70.687497 47.674108,67.09375 50.53125,52.09375 C 45.960478,43.96793 45.336573,46.065602 44.75,37.875 z"
         style="opacity:0.66000001;fill:#000000;fill-opacity:1;stroke:none;stroke-width:0.2;stroke-miterlimit:4;stroke-dasharray:none;stroke-dashoffset:0;stroke-opacity:1" />
      <path
         id="path2947"
         d="M 65.75,30.34375 C 59.039412,30.34375 52.808452,32.340506 47.59375,35.78125 C 46.611608,43.28125 52.312499,49.437501 52.3125,49.4375 C 67.491071,33.991071 79.281251,49.343749 79.28125,49.34375 C 79.244834,49.34375 89.46089,50.811447 97.15625,53.0625 C 92.816204,39.871276 80.387879,30.343751 65.75,30.34375 z"
         style="opacity:0.66000001;fill:#000000;fill-opacity:1;stroke:none;stroke-width:0.2;stroke-miterlimit:4;stroke-dasharray:none;stroke-dashoffset:0;stroke-opacity:1" />
      <path
         id="path2949"
         d="M 80.71875,53.263393 C 85.540179,70.049107 64.464286,72.379463 64.375,72.200893 C 64.285714,72.022321 51.781251,83.54464 51.78125,83.544643 C 51.78125,83.544643 53.401783,88.799108 65.1875,93.888393 C 69.350532,94.822305 73.229499,94.631433 76.8125,93.638393 C 76.915455,93.601835 77.022517,93.582191 77.125,93.544643 C 89.778256,88.90878 98.812498,76.735288 98.8125,62.482143 C 98.8125,61.040897 98.710454,59.624881 98.53125,58.232143 C 91.280145,53.910122 80.718749,53.263394 80.71875,53.263393 z"
         style="opacity:0.66000001;fill:#000000;fill-opacity:1;stroke:none;stroke-width:0.2;stroke-miterlimit:4;stroke-dasharray:none;stroke-dashoffset:0;stroke-opacity:1" />
      <path
         transform="matrix(1.0534351,0,0,1.2,66.560796,-7.3857147)"
         d="M 10.892857,53.892857 A 11.696428,9.8214283 0 1 1 -12.5,53.892857 A 11.696428,9.8214283 0 1 1 10.892857,53.892857 z"
         sodipodi:ry="9.8214283"
         sodipodi:rx="11.696428"
         sodipodi:cy="53.892857"
         sodipodi:cx="-0.8035714"
         id="path2966"
         style="opacity:0.66000001;fill:#000000;fill-opacity:1;stroke:none;stroke-width:0.2;stroke-miterlimit:4;stroke-dasharray:none;stroke-dashoffset:0;stroke-opacity:1"
         sodipodi:type="arc" />
    </g>
  </g>
</svg>
